material/.icons/material/database-search.svg

<svg xmlns="http://www.w3.org/2000/svg" viewBox="0 0 24 24"><path d="M18.68 12.32a4.49 4.49 0 00-6.36.01 4.49 4.49 0 000 6.36 4.508 4.508 0 005.57.63L21 22.39 22.39 21l-3.09-3.11c1.13-1.77.87-4.09-.62-5.57m-1.41 4.95c-.98.98-2.56.97-3.54 0-.97-.98-.97-2.56.01-3.54.97-.97 2.55-.97 3.53 0 .97.98.97 2.56 0 3.54M10.9 20.1a6.527 6.527 0 01-1.48-2.32C6.27 17.25 4 15.76 4 14v3c0 2.21 3.58 4 8 4-.4-.26-.77-.56-1.1-.9M4 9v3c0 1.68 2.07 3.12 5 3.7v-.2c0-.93.2-1.85.58-2.69C6.34 12.3 4 10.79 4 9m8-6C7.58 3 4 4.79 4 7c0 2 3 3.68 6.85 4h.05c1.2-1.26 2.86-2 4.6-2 .91 0 1.81.19 2.64.56A3.215 3.215 0 0020 7c0-2.21-3.58-4-8-4z"/></svg>

<?xml version="1.0" encoding="UTF-8"?><!DOCTYPE svg PUBLIC "-//W3C//DTD SVG 1.1//EN" "http://www.w3.org/Graphics/SVG/1.1/DTD/svg11.dtd"><svg xmlns="http://www.w3.org/2000/svg" xmlns:xlink="http://www.w3.org/1999/xlink" version="1.1" id="mdi-database-search" width="24" height="24" viewBox="0 0 24 24"><path d="M18.68,12.32C16.92,10.56 14.07,10.57 12.32,12.33C10.56,14.09 10.56,16.94 12.32,18.69C13.81,20.17 16.11,20.43 17.89,19.32L21,22.39L22.39,21L19.3,17.89C20.43,16.12 20.17,13.8 18.68,12.32M17.27,17.27C16.29,18.25 14.71,18.24 13.73,17.27C12.76,16.29 12.76,14.71 13.74,13.73C14.71,12.76 16.29,12.76 17.27,13.73C18.24,14.71 18.24,16.29 17.27,17.27M10.9,20.1C10.25,19.44 9.74,18.65 9.42,17.78C6.27,17.25 4,15.76 4,14V17C4,19.21 7.58,21 12,21V21C11.6,20.74 11.23,20.44 10.9,20.1M4,9V12C4,13.68 6.07,15.12 9,15.7C9,15.63 9,15.57 9,15.5C9,14.57 9.2,13.65 9.58,12.81C6.34,12.3 4,10.79 4,9M12,3C7.58,3 4,4.79 4,7C4,9 7,10.68 10.85,11H10.9C12.1,9.74 13.76,9 15.5,9C16.41,9 17.31,9.19 18.14,9.56C19.17,9.09 19.87,8.12 20,7C20,4.79 16.42,3 12,3Z" /></svg>
